X: 28498
T: Munster Bank, The
R: polka
M: 2/4
K: Gmajor
|:F/|GG/E/ DE|GA B2|ed BG/B/|AG EF|
G/A/G/E/ DE|GA B^A/B/|ed BG/B/|AG G3/2:|
|:d/|ed B/c/d|ed dB/d/|g>e dB|AG ED|
G>E DE|GA B^A/B/|ed BG/B/|AG G3/2:|

